X:26
T:gavotte variations
R:
%C:Trad/  arrangement personnel
N:
O:France
Z:<anamnese@laposte.net>
M:4/4
L:1/8
Q:1/4=160
K:G
V:1
EDEF GAB2 | edBA B2B2 |
EDEF GAB2 | edBA B2B2 |:
edBA BAG2 | GEFG A2B2 |
edBA BAG2 | GEFG E2E2 :|
V:2
EDEF GFE2 | BcBA G2E2 |
EDEF GFE2 | BcBA G2E2 |:
BcBA GFE2 | BcBA dcB2 |
BcBA GFE2 | BcBA G2E2 :|
